X: 90
T:Walk Up Georgia Row
R: Reel
M:C| 
L:1/8
S:https://tunearch.org//wiki/Georgia_Row
K:AMix
AB|:c2e2e3c | B2A4AB|c2e2 efec | B2Bc B2AB|
c2e2e4|c3B c2AB | cBAF E2F2| A3B A2 AB:| 
|:cABc A2F2 | E3FE2AB | c2(3BcB A2F2 | A3B A2AB | 
cBcB A2F2|E3F E2AB |c2(3BcB A2F2 | A3B A2AB :|

